X:279
M:C|
L:1/8
K:C
e/f/|g>ce>c d>G B2|F<cE<c d<D De/f/|g>ce>c d<G B2|c<G A>F E<CC:|
E<GC<E c<G F>E|F<cE<c d<D D>F|E<GC<E e>cd>B|c>GA>F E<CC||

